app/assets/images/logo.svg

<svg width="192" height="154" fill="none" xmlns="http://www.w3.org/2000/svg"><path fill-rule="evenodd" clip-rule="evenodd" d="M40 0H0v40h40V0zM18.7 29h-5.25V11.1h8.3c4.7 0 7.625 2.5 7.625 6.35 0 3.85-2.95 6.35-7.675 6.35h-3V29zm0-14.1V20h2.45c1.775 0 2.95-1 2.95-2.55 0-1.55-1.175-2.55-2.95-2.55H18.7z" fill="#122675"/><path stroke="#122675" stroke-width="2" d="M39 1h38v38H39z"/><path d="M51.425 29H56.7v-5.9h1.275l4.45 5.9H68.3l-5.275-6.3.2-.05c2.6-.475 4.5-2.525 4.5-5.45 0-3.65-2.9-6.1-7.275-6.1h-9.025V29zm5.275-9.325V14.9h2.825c1.675 0 2.925.9 2.925 2.375 0 1.5-1.25 2.4-2.925 2.4H56.7z" fill="#122675"/><path stroke="#122675" stroke-width="2" d="M77 1h38v38H77z"/><path d="M89.425 29h14.025v-4.15h-8.925v-3.175h8.2V18.25h-8.2v-3h8.675V11.1H89.425V29z" fill="#122675"/><path stroke="#122675" stroke-width="2" d="M39 39h38v38H39z"/><path d="M57.95 67.375c5 0 8.275-2.3 8.275-5.85 0-4.325-4.125-4.975-7.175-5.425-2.075-.3-3.85-.525-3.85-1.875 0-1 1-1.7 2.675-1.7 1.8 0 2.975.9 2.975 2.475h4.775c0-3.7-3.175-6.25-7.925-6.25-4.725 0-7.775 2.3-7.775 5.85 0 4.6 4.65 4.975 7.725 5.4 1.825.25 3.3.55 3.3 1.85 0 1.1-1.1 1.725-2.8 1.725-2.15 0-3.375-.975-3.4-2.475H49.8c0 3.7 3.25 6.275 8.15 6.275z" fill="#122675"/><path stroke="#122675" stroke-width="2" d="M77 39h38v38H77z"/><path d="M89.425 67h14.025v-4.15h-8.925v-3.175h8.2V56.25h-8.2v-3h8.675V49.1H89.425V67z" fill="#122675"/><path stroke="#122675" stroke-width="2" d="M115 39h38v38h-38z"/><path d="M126.425 67h5.275v-5.9h1.275l4.45 5.9h5.875l-5.275-6.3.2-.05c2.6-.475 4.5-2.525 4.5-5.45 0-3.65-2.9-6.1-7.275-6.1h-9.025V67zm5.275-9.325V52.9h2.825c1.675 0 2.925.9 2.925 2.375 0 1.5-1.25 2.4-2.925 2.4H131.7z" fill="#122675"/><path stroke="#122675" stroke-width="2" d="M115 77h38v38h-38z"/><path d="M130.525 105h8.225l5.3-17.9h-5.45l-3.825 14.025h-.25L130.65 87.1h-5.4l5.275 17.9z" fill="#122675"/><path stroke="#122675" stroke-width="2" d="M153 77h38v38h-38z"/><path d="M165.425 105h14.025v-4.15h-8.925v-3.175h8.2V94.25h-8.2v-3h8.675V87.1h-13.775V105z" fill="#122675"/><path stroke="#122675" stroke-width="2" d="M77 115h38v38H77z"/><path d="M101.375 126c-2.169 0-3.995 1.348-4.875 2.133-.88-.785-2.706-2.133-4.875-2.133-3.102 0-5.625 2.515-5.625 5.606 0 1.936 1.774 3.698 1.845 3.768L96.5 144l8.651-8.621c.075-.075 1.849-1.837 1.849-3.773 0-3.091-2.523-5.606-5.625-5.606z" fill="#122675"/></svg>

<svg width="192" height="154" viewBox="0 0 192 154" fill="none" xmlns="http://www.w3.org/2000/svg">
<path fill-rule="evenodd" clip-rule="evenodd" d="M40 0H4.95911e-05V40H40V0ZM18.7 29H13.45V11.1H21.75C26.45 11.1 29.375 13.6 29.375 17.45C29.375 21.3 26.425 23.8 21.7 23.8H18.7V29ZM18.7 14.9V20H21.15C22.925 20 24.1 19 24.1 17.45C24.1 15.9 22.925 14.9 21.15 14.9H18.7Z" fill="#122675"/>
<rect x="39" y="1" width="38" height="38" stroke="#122675" stroke-width="2"/>
<path d="M51.425 29H56.7V23.1H57.975L62.425 29H68.3001L63.025 22.7L63.225 22.65C65.825 22.175 67.725 20.125 67.725 17.2C67.725 13.55 64.8251 11.1 60.45 11.1H51.425V29ZM56.7 19.675V14.9H59.525C61.2 14.9 62.45 15.8 62.45 17.275C62.45 18.775 61.2 19.675 59.525 19.675H56.7Z" fill="#122675"/>
<rect x="77" y="1" width="38" height="38" stroke="#122675" stroke-width="2"/>
<path d="M89.425 29H103.45V24.85H94.525V21.675H102.725V18.25H94.525V15.25H103.2V11.1H89.425V29Z" fill="#122675"/>
<rect x="39" y="39" width="38" height="38" stroke="#122675" stroke-width="2"/>
<path d="M57.95 67.375C62.95 67.375 66.225 65.075 66.225 61.525C66.225 57.2 62.1 56.55 59.05 56.1C56.975 55.8 55.2 55.575 55.2 54.225C55.2 53.225 56.2 52.525 57.875 52.525C59.675 52.525 60.85 53.425 60.85 55H65.625C65.625 51.3 62.4501 48.75 57.7 48.75C52.975 48.75 49.925 51.05 49.925 54.6C49.925 59.2 54.575 59.575 57.65 60C59.475 60.25 60.95 60.55 60.95 61.85C60.95 62.95 59.85 63.575 58.15 63.575C56 63.575 54.775 62.6 54.75 61.1H49.8C49.8 64.8 53.05 67.375 57.95 67.375Z" fill="#122675"/>
<rect x="77" y="39" width="38" height="38" stroke="#122675" stroke-width="2"/>
<path d="M89.425 67H103.45V62.85H94.525V59.675H102.725V56.25H94.525V53.25H103.2V49.1H89.425V67Z" fill="#122675"/>
<rect x="115" y="39" width="38" height="38" stroke="#122675" stroke-width="2"/>
<path d="M126.425 67H131.7V61.1H132.975L137.425 67H143.3L138.025 60.7L138.225 60.65C140.825 60.175 142.725 58.125 142.725 55.2C142.725 51.55 139.825 49.1 135.45 49.1H126.425V67ZM131.7 57.675V52.9H134.525C136.2 52.9 137.45 53.8 137.45 55.275C137.45 56.775 136.2 57.675 134.525 57.675H131.7Z" fill="#122675"/>
<rect x="115" y="77" width="38" height="38" stroke="#122675" stroke-width="2"/>
<path d="M130.525 105H138.75L144.05 87.1H138.6L134.775 101.125H134.525L130.65 87.1H125.25L130.525 105Z" fill="#122675"/>
<rect x="153" y="77" width="38" height="38" stroke="#122675" stroke-width="2"/>
<path d="M165.425 105H179.45V100.85H170.525V97.675H178.725V94.25H170.525V91.25H179.2V87.1H165.425V105Z" fill="#122675"/>
<rect x="77" y="115" width="38" height="38" stroke="#122675" stroke-width="2"/>
<path d="M101.375 126C99.206 126 97.3798 127.348 96.5 128.133C95.6202 127.348 93.794 126 91.625 126C88.523 126 86 128.515 86 131.606C86 133.542 87.7738 135.304 87.845 135.374L96.5 144L105.151 135.379C105.226 135.304 107 133.542 107 131.606C107 128.515 104.477 126 101.375 126Z" fill="#122675"/>
</svg>
